images/01/time_time-schedule-1.svg

<svg fill="none" height="30" viewBox="0 0 30 30" width="30" xmlns="http://www.w3.org/2000/svg"><g fill="#555"><path d="m13.001 3.5c-.2761 0-.5.22388-.5.5v7.0708c-.6994.1818-1.2472.7296-1.429 1.429h-5.07078c-.27612 0-.5.2238-.5.5 0 .2761.22388.5.5.5h5.07078c.2236.8601.9998 1.5 1.929 1.5 1.1028 0 2-.8973 2-2 0-.9292-.6399-1.7054-1.5-1.929v-7.0708c0-.27612-.2239-.5-.5-.5zm1 9.4998c0 .5515-.4485 1-1 1s-1-.4485-1-1c0-.5516.4485-1 1-1s1 .4484 1 1z"/><path d="m29.5 13h-12.5007c-.2762 0-.5.2239-.5.5v16c0 .2761.2238.5.5.5h12.5007c.2761 0 .5-.2239.5-.5v-16c0-.2761-.2239-.5-.5-.5zm-.5 16h-11.5007v-15h11.5007z"/><path d="m19.4954 26.9961h2c.2761 0 .5-.2239.5-.5v-2c0-.2761-.2239-.5-.5-.5h-2c-.2762 0-.5.2239-.5.5v2c0 .2761.2238.5.5.5zm.5-2h1v1h-1z"/><path d="m19.4954 22.9961h2c.2761 0 .5-.2239.5-.5v-2c0-.2761-.2239-.5-.5-.5h-2c-.2762 0-.5.2239-.5.5v2c0 .2761.2238.5.5.5zm.5-2h1v1h-1z"/><path d="m19.4954 18.9922h2c.2761 0 .5-.2239.5-.5v-2c0-.2761-.2239-.5-.5-.5h-2c-.2762 0-.5.2239-.5.5v2c0 .2761.2238.5.5.5zm.5-2h1v1h-1z"/><path d="m23.499 19h3.4998c.2761 0 .5-.2239.5-.5s-.2239-.5-.5-.5h-3.4998c-.2761 0-.5.2239-.5.5s.2239.5.5.5z"/><path d="m23.499 23.0039h3.4998c.2761 0 .5-.2239.5-.5s-.2239-.5-.5-.5h-3.4998c-.2761 0-.5.2239-.5.5s.2239.5.5.5z"/><path d="m23.499 27.0078h3.4998c.2761 0 .5-.2239.5-.5s-.2239-.5-.5-.5h-3.4998c-.2761 0-.5.2239-.5.5s.2239.5.5.5z"/><path d="m13 26c.6968 0 1.3965-.0559 2.0798-.1663.2725-.0441.4578-.3007.4139-.5734-.0442-.2727-.3001-.46-.5735-.4139-.6307.1018-1.2766.1536-1.9202.1536-6.61694 0-12-5.3833-12-12s5.38306-12 12-12c6.0747 0 11.1943 4.5393 11.9084 10.5588.0328.2747.282.4683.5555.4378.2744-.0327.4702-.2813.4377-.5554-.7739-6.5225-6.3205-11.4412-12.9016-11.4412-7.16821 0-13 5.83179-13 13 0 7.1682 5.83179 13 13 13z"/></g></svg>

<svg xmlns="http://www.w3.org/2000/svg" width="30" height="30" viewBox="0 0 30 30" fill="none"><path d="M13.001 3.5C12.7249 3.5 12.501 3.72388 12.501 4V11.0708C11.8016 11.2526 11.2538 11.8004 11.072 12.4998H6.00122C5.7251 12.4998 5.50122 12.7236 5.50122 12.9998C5.50122 13.2759 5.7251 13.4998 6.00122 13.4998H11.072C11.2956 14.3599 12.0718 14.9998 13.001 14.9998C14.1038 14.9998 15.001 14.1025 15.001 12.9998C15.001 12.0706 14.3611 11.2944 13.501 11.0708V4C13.501 3.72388 13.2771 3.5 13.001 3.5ZM14.001 12.9998C14.001 13.5513 13.5525 13.9998 13.001 13.9998C12.4495 13.9998 12.001 13.5513 12.001 12.9998C12.001 12.4482 12.4495 11.9998 13.001 11.9998C13.5525 11.9998 14.001 12.4482 14.001 12.9998Z" fill="#555555"/><path d="M29.5 13H16.9993C16.7231 13 16.4993 13.2239 16.4993 13.5V29.5C16.4993 29.7761 16.7231 30 16.9993 30H29.5C29.7761 30 30 29.7761 30 29.5V13.5C30 13.2239 29.7761 13 29.5 13ZM29 29H17.4993V14H29V29Z" fill="#555555"/><path d="M19.4954 26.9961H21.4954C21.7715 26.9961 21.9954 26.7722 21.9954 26.4961V24.4961C21.9954 24.22 21.7715 23.9961 21.4954 23.9961H19.4954C19.2192 23.9961 18.9954 24.22 18.9954 24.4961V26.4961C18.9954 26.7722 19.2192 26.9961 19.4954 26.9961ZM19.9954 24.9961H20.9954V25.9961H19.9954V24.9961Z" fill="#555555"/><path d="M19.4954 22.9961H21.4954C21.7715 22.9961 21.9954 22.7722 21.9954 22.4961V20.4961C21.9954 20.22 21.7715 19.9961 21.4954 19.9961H19.4954C19.2192 19.9961 18.9954 20.22 18.9954 20.4961V22.4961C18.9954 22.7722 19.2192 22.9961 19.4954 22.9961ZM19.9954 20.9961H20.9954V21.9961H19.9954V20.9961Z" fill="#555555"/><path d="M19.4954 18.9922H21.4954C21.7715 18.9922 21.9954 18.7683 21.9954 18.4922V16.4922C21.9954 16.2161 21.7715 15.9922 21.4954 15.9922H19.4954C19.2192 15.9922 18.9954 16.2161 18.9954 16.4922V18.4922C18.9954 18.7683 19.2192 18.9922 19.4954 18.9922ZM19.9954 16.9922H20.9954V17.9922H19.9954V16.9922Z" fill="#555555"/><path d="M23.499 19H26.9988C27.2749 19 27.4988 18.7761 27.4988 18.5C27.4988 18.2239 27.2749 18 26.9988 18H23.499C23.2229 18 22.999 18.2239 22.999 18.5C22.999 18.7761 23.2229 19 23.499 19Z" fill="#555555"/><path d="M23.499 23.0039H26.9988C27.2749 23.0039 27.4988 22.78 27.4988 22.5039C27.4988 22.2278 27.2749 22.0039 26.9988 22.0039H23.499C23.2229 22.0039 22.999 22.2278 22.999 22.5039C22.999 22.78 23.2229 23.0039 23.499 23.0039Z" fill="#555555"/><path d="M23.499 27.0078H26.9988C27.2749 27.0078 27.4988 26.7839 27.4988 26.5078C27.4988 26.2317 27.2749 26.0078 26.9988 26.0078H23.499C23.2229 26.0078 22.999 26.2317 22.999 26.5078C22.999 26.7839 23.2229 27.0078 23.499 27.0078Z" fill="#555555"/><path d="M13 26C13.6968 26 14.3965 25.9441 15.0798 25.8337C15.3523 25.7896 15.5376 25.533 15.4937 25.2603C15.4495 24.9876 15.1936 24.8003 14.9202 24.8464C14.2895 24.9482 13.6436 25 13 25C6.38306 25 1 19.6167 1 13C1 6.3833 6.38306 1 13 1C19.0747 1 24.1943 5.5393 24.9084 11.5588C24.9412 11.8335 25.1904 12.0271 25.4639 11.9966C25.7383 11.9639 25.9341 11.7153 25.9016 11.4412C25.1277 4.9187 19.5811 0 13 0C5.83179 0 0 5.83179 0 13C0 20.1682 5.83179 26 13 26Z" fill="#555555"/></svg>
